Simply-Black-Circles/scalable/mimes/application-x-lzop.svg

<?xml version="1.0" encoding="UTF-8" standalone="no"?><svg xmlns:dc="http://purl.org/dc/elements/1.1/" xmlns:cc="http://creativecommons.org/ns#" xmlns:rdf="http://www.w3.org/1999/02/22-rdf-syntax-ns#" xmlns="http://www.w3.org/2000/svg" width="48" height="48" viewBox="0 0 12.7 12.7"><metadata><rdf:RDF><cc:Work><dc:format>image/svg+xml</dc:format><dc:type rdf:resource="http://purl.org/dc/dcmitype/StillImage"/><dc:title/></cc:Work></rdf:RDF></metadata><path d="M1.21.86L.14 3.66h6.04V.86H1.21zm5.18 0v2.8h6.11L11.4.86H6.4zM.19 3.89v6.31c0 .64.25 1.18.74 1.64.5.45 1.08.67 1.78.67h7.25c.7 0 1.28-.22 1.78-.67.49-.46.73-1 .73-1.64V3.9h-1.12v6.3c0 .36-.13.66-.4.91a1.4 1.4 0 0 1-.99.38H2.71a1.4 1.4 0 0 1-.99-.38 1.19 1.19 0 0 1-.41-.9V3.88H.19zm1.53 1.4v1.06H2v1.06h.53V6.35h.26V5.29H1.72zm1.32.05v.53h.53v-.53h-.53zm.53.53v.53h.53v-.53h-.53zm.53 0h.53v-.53H4.1v.53zm.53 0v.53h.53v-.53h-.53zm.53 0h.52v-.53h-.52v.53zm.52 0v.53h.53v-.53h-.53zm.53 0h.53v-.53h-.53v.53zm.53 0v.53h.53v-.53h-.53zm.53 0h.53v-.53h-.53v.53zm.53 0v.53h.53v-.53H7.8zm.53 0h.53v-.53h-.53v.53zm.53 0v.53h.53v-.53h-.53zm.53 0h.53v-.53h-.53v.53zm.53 0v.53h.53v-.53h-.53zm.53 0h.53v-.53h-.53v.53zm-8.46-.31h.53v.53h-.53v-.53zM4.25 8.1v2.34h.42V8.11h-.42zm3.21.54a.93.93 0 0 0-.93.92c0 .51.42.92.94.92.5 0 .93-.4.93-.9a.92.92 0 0 0-.94-.94zm-2.33.05v.37h.68l-.77 1v.38h1.34v-.38h-.84l.77-1V8.7H5.13zm2.34.34c.28 0 .5.24.5.53a.52.52 0 0 1-.5.54c-.29 0-.51-.24-.51-.54 0-.3.23-.53.5-.53z" fill="#1a1a1a"/></svg>

<?xml version="1.0" encoding="UTF-8" standalone="no"?>
<svg
   xmlns:dc="http://purl.org/dc/elements/1.1/"
   xmlns:cc="http://creativecommons.org/ns#"
   xmlns:rdf="http://www.w3.org/1999/02/22-rdf-syntax-ns#"
   xmlns:svg="http://www.w3.org/2000/svg"
   xmlns="http://www.w3.org/2000/svg"
   xmlns:sodipodi="http://sodipodi.sourceforge.net/DTD/sodipodi-0.dtd"
   xmlns:inkscape="http://www.inkscape.org/namespaces/inkscape"
   width="48"
   height="48"
   viewBox="0 0 12.7 12.7"
   version="1.1"
   id="svg6"
   sodipodi:docname="application-x-lzop.svg"
   inkscape:version="0.92.4 (5da689c313, 2019-01-14)">
  <defs
     id="defs10" />
  <sodipodi:namedview
     pagecolor="#ffffff"
     bordercolor="#666666"
     borderopacity="1"
     objecttolerance="10"
     gridtolerance="10"
     guidetolerance="10"
     inkscape:pageopacity="0"
     inkscape:pageshadow="2"
     inkscape:window-width="1087"
     inkscape:window-height="480"
     id="namedview8"
     showgrid="false"
     inkscape:zoom="4.9166667"
     inkscape:cx="2.1355932"
     inkscape:cy="24"
     inkscape:window-x="0"
     inkscape:window-y="25"
     inkscape:window-maximized="0"
     inkscape:current-layer="svg6" />
  <metadata
     id="metadata2">
    <rdf:RDF>
      <cc:Work>
        <dc:format>image/svg+xml</dc:format>
        <dc:type
           rdf:resource="http://purl.org/dc/dcmitype/StillImage" />
        <dc:title></dc:title>
      </cc:Work>
    </rdf:RDF>
  </metadata>
  <path
     d="m 1.21,0.86 -1.07,2.8 h 6.04 v -2.8 z m 5.18,0 v 2.8 h 6.11 l -1.1,-2.8 h -5 z m -6.2,3.03 v 6.31 c 0,0.64 0.25,1.18 0.74,1.64 0.5,0.45 1.08,0.67 1.78,0.67 h 7.25 c 0.7,0 1.28,-0.22 1.78,-0.67 0.49,-0.46 0.73,-1 0.73,-1.64 V 3.9 h -1.12 v 6.3 c 0,0.36 -0.13,0.66 -0.4,0.91 A 1.4,1.4 0 0 1 9.96,11.49 H 2.71 A 1.4,1.4 0 0 1 1.72,11.11 1.19,1.19 0 0 1 1.31,10.21 V 3.88 H 0.19 Z m 1.53,1.4 V 6.35 H 2 V 7.41 H 2.53 V 6.35 H 2.79 V 5.29 Z M 3.04,5.34 V 5.87 H 3.57 V 5.34 Z M 3.57,5.87 V 6.4 H 4.1 V 5.87 Z m 0.53,0 H 4.63 V 5.34 H 4.1 Z m 0.53,0 V 6.4 H 5.16 V 5.87 Z m 0.53,0 H 5.68 V 5.34 H 5.16 Z m 0.52,0 V 6.4 H 6.21 V 5.87 Z m 0.53,0 H 6.74 V 5.34 H 6.21 Z m 0.53,0 V 6.4 H 7.27 V 5.87 Z m 0.53,0 H 7.8 V 5.34 H 7.27 Z m 0.53,0 V 6.4 H 8.33 V 5.87 Z m 0.53,0 H 8.86 V 5.34 H 8.33 Z m 0.53,0 V 6.4 H 9.39 V 5.87 Z m 0.53,0 H 9.92 V 5.34 H 9.39 Z m 0.53,0 V 6.4 h 0.53 V 5.87 Z m 0.53,0 h 0.53 V 5.34 H 10.45 Z M 1.99,5.56 H 2.52 V 6.09 H 1.99 Z M 4.25,8.1 v 2.34 H 4.67 V 8.11 H 4.25 Z M 7.46,8.64 A 0.93,0.93 0 0 0 6.53,9.56 c 0,0.51 0.42,0.92 0.94,0.92 0.5,0 0.93,-0.4 0.93,-0.9 A 0.92,0.92 0 0 0 7.46,8.64 Z M 5.13,8.69 v 0.37 h 0.68 l -0.77,1 v 0.38 H 6.38 V 10.06 H 5.54 l 0.77,-1 V 8.7 H 5.13 Z m 2.34,0.34 c 0.28,0 0.5,0.24 0.5,0.53 a 0.52,0.52 0 0 1 -0.5,0.54 c -0.29,0 -0.51,-0.24 -0.51,-0.54 0,-0.3 0.23,-0.53 0.5,-0.53 z"
     id="path4"
     inkscape:connector-curvature="0"
     style="fill:#1a1a1a" />
</svg>
